X:192
T:Miss Monaghan
R:Reel
O:Ireland
D:Round the house
B:O'Neill's 1312
B:Roche 1 158- first two parts only
B:Fiddler's Fakebook- first two parts only
B:Ceol Rince 3 n93- first two parts only written out multiple times...
S:My arrangement from various sources, mostly O'Neill's 1312
Z:Transcription, arrangement, chords:Mike Long
M:C|
L:1/8
K:D
"D"D2(3(FED) FAAd|"G"BcBA "D"FABc|"G"dedB ABde|"D"fede "A"fee2|\
"D"D2(3(FED) FAAd|
"G"BcBA "D"FABc|"G"dedB ABdB|"A"AFEG "D"FDD2:|\
|:"D"faab afdf|"G"gefd "A"edBc|
"G"dedB ABde|"D"fede "A"fee2|\
"D"faab afdf|"G"gefd "A"edBc|"G"dedB ABdB|"A"AFEG "D"FDD2:|
P:B repeat alternative
"D"defg abaf|"G"gfed "A"cAAG|"D"FAdB "A"cdeg|"G"fdgf "A"e2AA|
"D"defg abaf|"G"gfed "A"cAAc|"D"defd "G"ecdB|"A"AFGE "D"FDDA,|]
